X:1
L:1/4
Q:1/4=200
M:6/8
V:1
V:2 clef=bass
K:F
[V:1] [A,CE]3/4 z/4 [A,CE]3/4 z/4 [A,D]/[G,C]/ | [A,C]/[A,D]3/4 z3/4 A,/C/ | [F,B,D]3/4 z/4 [F,B,D]3/4 z/4 [B,D]/[B,E]/ | [A,CF]3/4 z/4 [A,CF]3/4 z/4 [CF]/[CG]/ |
[V:2] [A,,,A,,]3/4 z/4 [A,,,A,,]/ [A,,,A,,]3/4 z/4 [A,,,A,,]/ | [D,,D,]3/4 z/4 [D,,D,]/ [D,,D,]3/4 z/4 [D,,D,]/ | [B,,,B,,]3/4 z/4 [B,,,B,,]/ [B,,,B,,]3/4 z/4 [B,,,B,,]/ | [F,,,F,,]3/4 z/4 [F,,,F,,]/ [F,,,F,,]3/4 z/4 [F,,,F,,]/ |